X:3412
T:Coons The Corn Patch
R:jig
C:Bruce Osborne  --  Dec.11 1997
M:6/8
L:1/8
K:A
A/B/|cAA EAE|CEC A,CE|GBe gfe|gbg gfe|
cAA EAE|CEC A,CE|GBe gfe|dcB A2:|
|:z|A,CE Ace|aga aec|EGB dcB|Acf ece|
A,CE Ace|agf ece|gfe dcB|AcB A2:|


